X:1
T:Title
%%score { ( 1 3 ) | ( 2 4 ) }
L:1/8
M:6/8
K:Bb
V:1 treble nm="Grand Piano"
V:3 treble 
V:2 bass 
V:4 bass 
V:1
 z3 z2[Q:1/4=90] F | [DB]2 [DB] BA[EG] | A3 F2 F | c2 c cBc |[M:5/8] [Fd]-[Fd]- [Fd]3 | %5
[M:1/8] [F,F] |[M:3/4] [DB]2 [DB]B A[EG] | A3 F2 F | cd e d2 c |[M:5/8] [B,DB]-[B,DB]- [B,DB]3 | %10
[M:1/8] [Fd] |[M:3/4] [Fd]e dc dc | f3 c2 c | B2 B e2 d | d2 c F3 |[M:1/8] F | %16
[M:3/4] B2 [DB]B A[EG] | A3 F2 F | cd e d2 c |[M:5/8] [DB]-[DB]- [DB]3 |] %20
V:2
 z3 z2 F, | [B,,F,]2 [B,,F,] [C,F,]2 [C,F,] | [F,CE]3 [F,A,E]2 [F,A,E] | %3
 [F,A,E]2 [F,A,E] [A,E][B,D][F,A,E] |[M:5/8] [B,,B,]-[B,,B,]- [B,,B,]3 |[M:1/8] z | %6
[M:3/4] [B,,F,]2 [B,,F,] [C,F,]2 [C,F,] | [F,CE]3 [F,A,E]2 [F,A,E] | %8
 E[K:treble]F [F,A,G] [F,A,F]2[K:bass] [F,A,E] |[M:5/8] B,,-B,,- B,,3 |[M:1/8] B, | %11
[M:3/4] z[K:treble] G [B,F] [G,B,=E]2[K:bass] [G,B,E] | [F,A,E]3 [F,A,E]2 [F,A,E] | %13
 [F,B,D]2 [F,DF] [F,CF]2 [F,B,F] | [F,F]2 [G,=E] [A,C_E]3 |[M:1/8] [A,CE] | %16
[M:3/4] [B,D]2 [B,,F,] [C,F,]2 [C,F,] | [F,CE]3 [F,A,E]2 [F,A,E] | %18
 E[K:treble]F [F,A,G] [F,A,F]2[K:bass] [F,A,E] |[M:5/8] [B,,B,]-[B,,B,]- [B,,B,]3 |] %20
V:3
 x6 | z3 .E3 | x6 | x6 |[M:5/8] x5 |[M:1/8] x |[M:3/4] z2 z .E3 | x6 | x6 |[M:5/8] x5 |[M:1/8] x | %11
[M:3/4] x6 | x6 | x6 | x6 |[M:1/8] x |[M:3/4] z2 z .E3 | x6 | x6 |[M:5/8] x5 |] %20
V:4
 x6 | x6 | x6 | z3 .F,3 |[M:5/8] x5 |[M:1/8] x |[M:3/4] x6 | x6 | [F,A,]2[K:treble] z2 z2[K:bass] | %9
[M:5/8] x5 |[M:1/8] x |[M:3/4] B,2[K:treble] z2 z2[K:bass] | x6 | x6 | B,4 z2 |[M:1/8] x | %16
[M:3/4] x6 | x6 | [F,A,]2[K:treble] z2 z2[K:bass] |[M:5/8] x5 |] %20

